X: 22332
T: La Valse Des Pastouriaux
R: waltz
M: 3/4
K: Gmajor
D2|GF GA Bc|d2dc BG|c2cB AG|FE FG AD|
GF GA Bc|d2dc BG|c2cB AG|A4:|
|:d2|ed e2f2|g4Bd|cd cB AG|FG A2d2|
ed e2f2|g4Bd|cd cB AG|A4:|

